X:36
T:Yellow Wattle
Z: id:dc-slide-36
M:6/8
L:1/8
K:D Mixolydian
dcA AGE|ABA AB^c|dcA AB^c|dcA GED|!
dcA AGE|ABA AGE|DED cde|dcA GED:|!
ded c3|d^cd =c3|d^cd =cde|dcA GED|!
ded c3|d^cd d2=c|ABA A^cd|dcA GED:|!

